svg/miner_worker_negative.svg

<?xml version="1.0" encoding="UTF-8" standalone="no"?>
<!-- Created with Inkscape (http://www.inkscape.org/) -->
<svg id="svg8" xmlns:rdf="http://www.w3.org/1999/02/22-rdf-syntax-ns#" xmlns="http://www.w3.org/2000/svg" xmlns:osb="http://www.openswatchbook.org/uri/2009/osb" height="48" width="48" version="1.1" xmlns:cc="http://creativecommons.org/ns#" viewBox="0 0 12.7 12.7" xmlns:dc="http://purl.org/dc/elements/1.1/">
 <title id="title4753">UIO-icon</title>
 <metadata id="metadata5">
  <rdf:RDF>
   <cc:Work rdf:about="">
    <dc:format>image/svg+xml</dc:format>
    <dc:type rdf:resource="http://purl.org/dc/dcmitype/StillImage"/>
    <dc:title>UIO-icon</dc:title>
    <dc:creator>
     <cc:Agent>
      <dc:title>Joaquín Urbano</dc:title>
     </cc:Agent>
    </dc:creator>
    <dc:rights>
     <cc:Agent>
      <dc:title>GPL</dc:title>
     </cc:Agent>
    </dc:rights>
   </cc:Work>
  </rdf:RDF>
 </metadata>
 <g id="layer1" transform="translate(0,-284.3)" fill="#333">
  <path id="rect3109" d="m0 0v48h48v-48zm23.502 4.9316c3.1359 0.0051507 6.0132 1.7394 7.4824 4.5098h-4.722c-0.245-1.3317-1.406-2.2987-2.76-2.2988-1.353 0.0011-2.513 0.9678-2.758 2.2988h-4.728c1.469-2.7716 4.349-4.5061 7.486-4.5098zm-8.135 6.0994h5.5488c0.43583 1.0433 1.4552 1.7232 2.5859 1.7246 1.1321 0.00014434 2.1535-0.67996 2.5898-1.7246h5.541c0.2213 0.74598 0.33894 1.5188 0.34961 2.2969h-16.963c0.010032-0.77795 0.12702-1.5508 0.34766-2.2969zm-2.4062 2.6523h21.082v1.2363h-3.623c0.01663 1.6517 0.035536 3.3033 0.046875 4.9551 0 2.0737-0.79828 4.1215-2.3613 5.0996-1.7383 1.0876-3.3495 2.2264-4.6094 2.2227-1.8397-0.057335-2.8768-0.92259-4.9668-2.2383-1.476-0.93-1.992-3-1.992-5.084v-4.955h-3.576zm7.5312 2.2559c0.43897 0.00011339 0.79482 0.35593 0.79492 0.79492-0.00009828 0.43888-0.35594 0.79481-0.79492 0.79492-0.43897-0.00011339-0.79482-0.35597-0.79492-0.79492 0.00009828-0.43892 0.35594-0.79481 0.79492-0.79492zm5.9688 0c0.43897 0.00011339 0.79482 0.35593 0.79492 0.79492-0.00009828 0.43888-0.35594 0.79481-0.79492 0.79492-0.439-0.00011339-0.79483-0.35597-0.79492-0.79492 0.0000945-0.43892 0.35594-0.79481 0.79492-0.79492zm-3.035 3.67c0.016781-0.00011339 0.033773-0.00011339 0.050781 0 0.39814 0 0.72 0.066422 0.7168 0.14844-0.002022 0.080882-0.32239 0.14652-0.7168 0.14648-0.39441 0.00037792-0.7148-0.065602-0.7168-0.14648-0.004021-0.077858 0.28788-0.14466 0.66602-0.14844zm2.9551 2.2617v0.001953c-1e-8 -0.00041575-0.011602 0.00037792-0.011719 0-0.027829 0.058734-1.219 0.27228-2.7012 0.48242-1.4936 0.21165-2.7161 0.34122-2.7422 0.28906-0.02016-0.050986 1.0846-0.25344 2.5215-0.46094 0.064403-0.007559 0.12892-0.019785 0.19336-0.027344 1.5017-0.21203 2.7126-0.33687 2.7285-0.2832 0.000378-0.000529 0.011643-0.001537 0.011719-0.001953zm3.9316 5.5625c0.81693 0.28997 1.6098 0.61807 2.4043 0.95898v9.1055h2.6523v-7.9551c1.0649 0.46137 2.1621 0.92102 3.373 1.3418 2.5451 0.75129 2.5449 2.867 2.5449 4.0195v6.6621h-5.918v-1.791h-2.6523v1.791h-18.737v-1.791h-2.652v1.791h-5.6132v-6.6621c0-1.1525-0.00017116-3.27 2.5449-4.0195 1.0957-0.38071 2.0962-0.79443 3.0684-1.2109v7.8242h2.6523v-8.973c0.855-0.37 1.707-0.729 2.582-1.045l0.10938-0.029297c1.8171 1.8074 4.275 2.8233 6.8379 2.8262 2.085-0.032267 5.2375-1.3736 6.8027-2.8437z" fill-rule="evenodd" transform="matrix(.26458 0 0 .26458 0 284.3)"/>
 </g>
</svg>

<svg width="48" height="48" viewBox="0 0 48 48" fill="none" xmlns="http://www.w3.org/2000/svg">
<path fill-rule="evenodd" clip-rule="evenodd" d="M0 0V47.9994H47.9994V0H0ZM23.5017 4.93154C26.6376 4.93669 29.5148 6.67092 30.984 9.44128H26.2621C26.0171 8.1096 24.8561 7.14261 23.5021 7.14251C22.1491 7.14361 20.9891 8.1103 20.7441 9.44128H16.0162C17.4852 6.66972 20.3651 4.93524 23.5021 4.93154H23.5017ZM15.3668 11.0309H20.9155C21.3514 12.0741 22.3707 12.754 23.5014 12.7554C24.6335 12.7556 25.6549 12.0755 26.0912 11.0309H31.6321C31.8534 11.7768 31.971 12.5496 31.9817 13.3277H15.0189C15.029 12.5498 15.1459 11.777 15.3666 11.0309H15.3668ZM12.9606 13.6831H34.0424V14.9194H30.4194C30.436 16.5711 30.455 18.2227 30.4663 19.8745C30.4663 21.9481 29.668 23.9959 28.105 24.974C26.3667 26.0616 24.7556 27.2004 23.4957 27.1967C21.656 27.1393 20.6189 26.2741 18.5289 24.9584C17.053 24.0284 16.537 21.9584 16.537 19.8745V14.9195H12.961L12.9606 13.6831ZM20.4917 15.939C20.9307 15.9391 21.2866 16.2949 21.2867 16.7339C21.2866 17.1728 20.9307 17.5287 20.4917 17.5288C20.0528 17.5287 19.6969 17.1729 19.6968 16.7339C19.6969 16.295 20.0528 15.9391 20.4917 15.939ZM26.4605 15.939C26.8994 15.9391 27.2553 16.2949 27.2554 16.7339C27.2553 17.1728 26.8994 17.5287 26.4605 17.5288C26.0215 17.5287 25.6656 17.1729 25.6656 16.7339C25.6657 16.295 26.0215 15.9391 26.4605 15.939ZM23.4255 19.609C23.4423 19.6088 23.4593 19.6088 23.4763 19.609C23.8744 19.609 24.1963 19.6754 24.1931 19.7574C24.1911 19.8383 23.8707 19.9039 23.4763 19.9039C23.0819 19.9042 22.7615 19.8383 22.7595 19.7574C22.7555 19.6795 23.0474 19.6127 23.4255 19.609ZM26.3806 21.8706V21.8726C26.3806 21.8722 26.369 21.873 26.3689 21.8726C26.341 21.9313 25.1499 22.1449 23.6677 22.355C22.1741 22.5666 20.9516 22.6962 20.9255 22.644C20.9054 22.5931 22.0101 22.3906 23.447 22.1831C23.5114 22.1756 23.5759 22.1633 23.6403 22.1558C25.142 21.9437 26.3529 21.8189 26.3688 21.8726C26.3692 21.872 26.3805 21.871 26.3805 21.8706H26.3806ZM30.3121 27.4331C31.129 27.723 31.9219 28.0511 32.7164 28.392V37.4974H35.3687V29.5424C36.4335 30.0038 37.5307 30.4634 38.7416 30.8842C41.2867 31.6355 41.2865 33.7512 41.2865 34.9036V41.5657H35.3686V39.7747H32.7163V41.5657H13.9795V39.7747H11.3276V41.5657H5.71443V34.9036C5.71443 33.7512 5.71426 31.6337 8.2593 30.8842C9.35498 30.5035 10.3555 30.0898 11.3277 29.6733V37.4974H13.9799V28.5245C14.8349 28.1545 15.6869 27.7955 16.5619 27.4795L16.6713 27.4502C18.4883 29.2576 20.9462 30.2735 23.5091 30.2764C25.5941 30.2441 28.7465 28.9028 30.3117 27.4327L30.3121 27.4331Z" fill="#333333"/>
</svg>
